X:1
T:Title
%%score { ( 1 3 ) | ( 2 4 ) }
L:1/8
Q:1/4=108
M:3/4
K:D
V:1 treble nm="Grand Piano"
V:3 treble 
V:2 bass 
V:4 bass 
V:1
 [A,DF]4 [A,EG]2 | [GB]2 A2 F2 | F2 E2 z2 | [CE]4 [EG]2 | c2 B2 [A,EA]2 | [A,DF]4 z2 | %6
w: W.~R.~Potter *||||||
 [DFA]4 [CFA]2 | d2 c2 .[B,GB]2 | [DGB]2 [DFA]2 z2 | [CEA]2 [CE]2 [A,CF]2 | [F,D]4 z2 |] %11
w: |||||
V:2
 D,4 D,2 | z2 F2 [D,A,D]2 | [E,^G,D]2 [E,G,D]2 z2 | [A,,A,]4 [A,,A,]2 | A,4 z2 | D,4 z2 | D,4 D,2 | %7
 D,2- [D,A,]2 z C | D,2 D,2 z2 | z2 A,2 A,,2 | D,4 z2 |] %11
V:3
 x6 | D4 z2 | x6 | x6 | G4 z2 | x6 | x6 | G4 z2 | x6 | x6 | x6 |] %11
V:4
 x6 | D,4 z2 | x6 | x6 | A,,2 B,,2 C,2 | x6 | x6 | B,2 z2 D,2 | x6 | A,,4 z2 | x6 |] %11

